X:997
T:Bahcevanci
S:the Empty Pocket Band (Leeds)
R:Other
O:N.Africa
M:4/4
K:Dm
ze ee de/f/ ed|c2(d4 d)c|Bc/d/ cB d2A2|\
ze ee de/f/ ed|c2(d4 d)c|Bc/d/ cB d2A2:|\
cc2c d3e|c2B2 A4|cc2c d3e|c2B2 A4|\
AAc2 AAc2|AAc2 dBA2|AAc2 AAc2|AAc>c dBA2||


